X:563
T: Sifang xiongdi daojintian
N: C1983
O: China,Guangxi Guiping
S: II, 474]
R: Shange, Jintian shange]
M: 2/4
L: 1/16
K: D
f2e2efe2 | f2e6 | B8 |
e2edBdBA | A2ABd3e | A8 |
f2e2efe2 | f2e6 | B8 |
e2edBdA2 | A2ABd3e | A8

@@@ Tune index: 7118
